X:1
T:Magnamente cadit
T:Daniel Friderici
T:Source : Bicinia sacra---Rostock---J.Richelius---1642. Editor : André Vierendeels (01/07/17).
T:Notes : Original clefs :  G2,G2 Editorial accidentals above the staff
T:Magnamente cadit
T:©
T:©
T:©
C:Daniel Friderici
Z:©
%%score [ 1 2 ]
L:1/8
Q:1/4=120
M:2/2
K:F
V:1 treble nm="Soprano 1" snm="S 1"
V:2 treble nm="Soprano 2" snm="S 2"
V:1
 z8 | f8- | f4 e4 | d2 e2 f2 ef | g4 e4 | f2 e2 d2 c2 | B4 A4 | G6 G2 | A4 F4 | c6 c2 | d4 f4- | %11
w: |Ma-|* gna-|men- * * * *|* te|ca- * * *|dit Ste-|* pha-|nus, pro|No- mi-|ne Chri-|
 f2 e2 d2 c2 | d2 c2 c4- | c2 =BA B4 | c8 :: d4 d2 c2 | B6 A2 | z4 z2 c2 | A3 B c2 F2 | z4 z2 c2 | %20
w: |||sti:|Fae- lix qui|ve- ra|pro|pi- e- ta- te,|pro|
 A3 B c2 F2 | z4 z2 c2 | d3 c B2 A2 | z4 z2 c2 | d3 c B2 A2 | G4 F2 B2 | FGAB c2 c2 | d4 e2 f2- | %28
w: pi- e- ta- te,|pro|pi- e- ta- te,|pro|pi- e- ta- te|ca- dit, pro|pi- * * * * e-|ta- te ca-|
 f2 ed e2 f2 | g2 f2 f4- | f2 ed e4 | f4 fedc | BAGF ED E2 | F8 :| z8 |] %35
w: |||dit, ca- * * *||dit.||
V:2
 B8- | B4 A4 | F2 G2 A2 GA | B4 A4 | G2 AB c4 | F4 B3 A | B4 c4 | d4 =B4 | c6 c2 | A2 FG A2 A2 | %10
w: Ma-|* gna-|men- * * * *|* te|ca- * * *|dit, ca- *|dit Ste-|pha- *|nus, pro|No- * * * mi-|
 G4 F2 GA | B2 c2 d2 e2 | f2 ef g2 f2 | e2 dc d4 | c8 :: B4 B2 A2 | G4 G2 c2 | A3 B c2 F2 | %18
w: ne Chri- * *||||st:|Fae- lix qui|ve- ra pro|pi- e- ta- te,|
 z4 z2 c2 | A3 B c2 F2 | z4 z2 c2 | d3 c B2 A2 | z4 z2 c2 | d3 c B2 A2 | GABc d2 ef | g2 de f4- | %26
w: pro|pi- e- ta- te,|pro|pi- e- ta- te,|pro|pi- e- ta- te|ca- * * * * * *||
 f2 ed e4 | f4 c2 d2- | d2 c2 c2 BA | G4 A4 | G8 | F6 fe | dcBA GF G2 | F8 :| z8 |] %35
w: |dit, pro pi-|* e- ta- * *|* te|ca-|dit, ca- *||dit.||

